symbolic/22x22/mimetypes/image-x-3ds.svg

<svg xmlns="http://www.w3.org/2000/svg" width="22" height="22" version="1.1">
 <path style="opacity:0.2" d="m 4,1.5 c -0.554,0 -1,0.446 -1,1 v 18 c 0,0.554 0.446,1 1,1 h 14 c 0.554,0 1,-0.446 1,-1 v -13 l -6,-6 z"/>
 <path style="fill:#df393f" d="M 4,1 C 3.446,1 3,1.446 3,2 v 18 c 0,0.554 0.446,1 1,1 h 14 c 0.554,0 1,-0.446 1,-1 V 7 L 14,6 13,1 Z"/>
 <path style="opacity:0.2" d="m 19,7.5 -6,-6 v 5 c 0,0.554 0.446,1 1,1 z"/>
 <path style="fill:#e76d71" d="M 19,7 13,1 v 5 c 0,0.554 0.446,1 1,1 z"/>
 <path style="opacity:0.2;fill:#ffffff" d="M 4,1 C 3.446,1 3,1.446 3,2 v 0.5 c 0,-0.554 0.446,-1 1,-1 h 9 V 1 Z"/>
 <path style="opacity:0.2" d="M 6.220703,12.5 C 5.227661,12.5 4.5,12.638672 4.5,12.638672 v 0.613281 c 0.450734,-0.124459 0.9563625,-0.230468 1.5439455,-0.230468 0.630573,0 1.1123045,0.215028 1.1123045,0.518554 0,0.365971 -0.4757985,0.574219 -1.5,0.574219 H 5.5 v 0.551758 h 0.123047 c 1.0788915,0 1.6923825,0.185459 1.6923825,0.637695 0,0.403731 -0.5489425,0.649414 -1.2324215,0.649414 -0.595979,0 -1.140793,-0.14501 -1.583008,-0.285156 v 0.661132 C 4.712396,16.370781 5.2755585,16.5 6.3251955,16.5 7.4879015,16.5 8.5,16.072877 8.5,15.320312 c 0,-0.631156 -0.701213,-1.000976 -1.116211,-1.000976 0,0 0.9716795,-0.177756 0.97168,-0.868164 C 8.355469,12.776302 7.3209615,12.5 6.220703,12.5 Z M 9,12.5 v 4 h 2.017578 c 0.528282,0 1.131567,-0.10923 1.451172,-0.28125 C 13.248354,15.800652 13.5,15.13338 13.5,14.5 13.5,13.867063 13.246743,13.199592 12.469727,12.782227 12.149873,12.610647 11.54586,12.5 11.017578,12.5 Z m 6.902344,0 c -1.14721,0 -1.899415,0.383437 -1.899415,1.036133 0,0.630213 0.625178,0.909971 1.47754,1.264648 0.637684,0.263122 0.860351,0.409983 0.860351,0.661133 0,0.279915 -0.240018,0.503906 -0.817383,0.503906 C 14.99614,15.96582 14.32027,15.850229 14,15.708008 V 16.375 c 0.449468,0.08133 0.853137,0.125 1.439453,0.125 1.427398,0 2.060547,-0.457891 2.060547,-1.092774 0,-0.617069 -0.505789,-0.899556 -1.414063,-1.265624 -0.652729,-0.261808 -1.024414,-0.406977 -1.024414,-0.709961 0,-0.208804 0.241862,-0.411133 0.808594,-0.411133 0.471622,0 0.793379,0.109742 1.129883,0.192383 V 12.603516 C 16.683562,12.539609 16.447248,12.5 15.902344,12.5 Z M 10,13 h 0.642578 C 11.628508,13 12.25,13.532445 12.25,14.50586 12.25,15.479578 11.628508,16 10.642578,16 H 10 Z"/>
 <path style="fill:#ffffff" d="M 6.220703,12 C 5.227661,12 4.5,12.138672 4.5,12.138672 v 0.613281 c 0.450734,-0.124459 0.9563625,-0.230468 1.5439455,-0.230468 0.630573,0 1.1123045,0.215028 1.1123045,0.518554 0,0.365971 -0.4757985,0.574219 -1.5,0.574219 H 5.5 v 0.551758 h 0.123047 c 1.0788915,0 1.6923825,0.185459 1.6923825,0.637695 0,0.403731 -0.5489425,0.649414 -1.2324215,0.649414 -0.595979,0 -1.140793,-0.14501 -1.583008,-0.285156 v 0.661132 C 4.712396,15.870781 5.2755585,16 6.3251955,16 7.4879015,16 8.5,15.572877 8.5,14.820313 c 0,-0.631157 -0.701213,-1.000977 -1.116211,-1.000977 0,0 0.9716795,-0.177756 0.97168,-0.868164 C 8.355469,12.276302 7.3209615,12 6.220703,12 Z M 9,12 v 4 h 2.017578 C 11.54586,16 12.149145,15.89077 12.46875,15.71875 13.248354,15.300652 13.5,14.63338 13.5,14 13.5,13.367063 13.246743,12.699592 12.469727,12.282227 12.149873,12.110647 11.54586,12 11.017578,12 Z m 6.902344,0 c -1.14721,0 -1.899415,0.383437 -1.899415,1.036133 0,0.630213 0.625178,0.909971 1.47754,1.264648 0.637684,0.263122 0.860351,0.409983 0.860351,0.661133 0,0.279915 -0.240018,0.503906 -0.817383,0.503906 C 14.99614,15.46582 14.32027,15.350229 14,15.208008 V 15.875 C 14.449468,15.956332 14.853137,16 15.439453,16 16.866851,16 17.5,15.542109 17.5,14.907227 c 0,-0.61707 -0.505789,-0.899557 -1.414063,-1.265625 -0.652729,-0.261808 -1.024414,-0.406977 -1.024414,-0.709961 0,-0.208804 0.241862,-0.411133 0.808594,-0.411133 0.471622,0 0.793379,0.109742 1.129883,0.192383 V 12.103516 C 16.683562,12.039609 16.447248,12 15.902344,12 Z M 10,12.5 h 0.642578 C 11.628508,12.5 12.25,13.032445 12.25,14.00586 12.25,14.979578 11.628508,15.5 10.642578,15.5 H 10 Z"/>
</svg>

<svg xmlns="http://www.w3.org/2000/svg" width="22" height="22"><path style="opacity:.2" d="M4 1.5c-.554 0-1 .446-1 1v18c0 .554.446 1 1 1h14c.554 0 1-.446 1-1v-13l-6-6z"/><path style="fill:#df393f" d="M4 1c-.554 0-1 .446-1 1v18c0 .554.446 1 1 1h14c.554 0 1-.446 1-1V7l-5-1-1-5z"/><path style="opacity:.2" d="m19 7.5-6-6v5c0 .554.446 1 1 1z"/><path style="fill:#e76d71" d="m19 7-6-6v5c0 .554.446 1 1 1z"/><path style="opacity:.2;fill:#fff" d="M4 1c-.554 0-1 .446-1 1v.5c0-.554.446-1 1-1h9V1z"/><path style="opacity:.2" d="M6.22 12.5c-.992 0-1.72.139-1.72.139v.613c.45-.125.956-.23 1.544-.23.63 0 1.112.215 1.112.518 0 .366-.476.574-1.5.574H5.5v.552h.123c1.079 0 1.692.185 1.692.638 0 .403-.549.65-1.232.65-.596 0-1.14-.146-1.583-.286v.661c.212.042.776.171 1.825.171 1.163 0 2.175-.427 2.175-1.18 0-.63-.701-1-1.116-1 0 0 .971-.178.971-.869 0-.675-1.034-.951-2.134-.951zm2.78 0v4h2.018c.528 0 1.131-.11 1.45-.281.78-.418 1.032-1.086 1.032-1.719s-.253-1.3-1.03-1.718c-.32-.171-.924-.282-1.452-.282zm6.902 0c-1.147 0-1.9.383-1.9 1.036 0 .63.626.91 1.478 1.265.638.263.86.41.86.66 0 .28-.24.505-.817.505-.527 0-1.203-.116-1.523-.258v.667c.45.081.853.125 1.44.125 1.427 0 2.06-.458 2.06-1.093 0-.617-.506-.9-1.414-1.265-.653-.262-1.024-.407-1.024-.71 0-.21.241-.411.808-.411.472 0 .793.11 1.13.192v-.61a4.671 4.671 0 0 0-1.098-.103zM10 13h.643c.986 0 1.607.532 1.607 1.506S11.629 16 10.643 16H10z"/><path style="fill:#fff" d="M6.22 12c-.992 0-1.72.139-1.72.139v.613c.45-.125.956-.23 1.544-.23.63 0 1.112.215 1.112.518 0 .366-.476.574-1.5.574H5.5v.552h.123c1.079 0 1.692.185 1.692.638 0 .403-.549.65-1.232.65-.596 0-1.14-.146-1.583-.286v.661c.212.042.776.171 1.825.171 1.163 0 2.175-.427 2.175-1.18 0-.63-.701-1-1.116-1 0 0 .971-.178.971-.869 0-.675-1.034-.951-2.134-.951zM9 12v4h2.018c.528 0 1.131-.11 1.45-.281.78-.418 1.032-1.086 1.032-1.719s-.253-1.3-1.03-1.718c-.32-.171-.924-.282-1.452-.282zm6.902 0c-1.147 0-1.9.383-1.9 1.036 0 .63.626.91 1.478 1.265.638.263.86.41.86.66 0 .28-.24.505-.817.505-.527 0-1.203-.116-1.523-.258v.667c.45.081.853.125 1.44.125 1.427 0 2.06-.458 2.06-1.093 0-.617-.506-.9-1.414-1.265-.653-.262-1.024-.407-1.024-.71 0-.21.241-.411.808-.411.472 0 .793.11 1.13.192v-.61A4.671 4.671 0 0 0 15.902 12zM10 12.5h.643c.986 0 1.607.532 1.607 1.506s-.621 1.494-1.607 1.494H10z"/></svg>
